!!!COM: George Gershwin
!!!OTL: [T693_Ger-w10p92h75m3-9]
**kern	**kern	**kern	**kern	**kern	**kern	**dynam	**kern	**dynam	**kern	**dynam	**kern	**kern	**kern	**kern	**kern	**kern	**kern	**kern	**dynam	**kern	**kern	**dynam	**kern	**dynam	**kern	**kern	**kern	**kern	**kern	**kern	**kern	**kern
*part27	*part26	*part25	*part24	*part23	*part22	*part22	*part21	*part21	*part20	*part20	*part19	*part18	*part17	*part16	*part15	*part14	*part13	*part12	*part12	*part11	*part10	*part10	*part9	*part9	*part8	*part7	*part6	*part5	*part4	*part3	*part2	*part1
*staff27	*staff26	*staff25	*staff24	*staff23	*staff22	*	*staff21	*	*staff20	*	*staff19	*staff18	*staff17	*staff16	*staff15	*staff14	*staff13	*staff12	*	*staff11	*staff10	*	*staff9	*	*staff8	*staff7	*staff6	*staff5	*staff4	*staff3	*staff2	*staff1
*I"Contrabass	*I"Violoncello	*I"Viola	*I"Violin II	*I"Violin I	*I"Baritone Saxophone	*	*I"Tenor Saxophone	*	*I"Alto Saxophone	*	*I"Xylophone	*I"Bass Drum	*I"Cymbal	*I"Snare Drum	*I"Timpani	*I"3rd Trombone & Tuba	*I"1st & 2nd Trombone	*I"3rd Trumpet in Bb	*	*I"1st & 2nd Trumpet in Bb	*I"3rd & 4th Horn in F	*	*I"1st & 2nd Horn in F	*	*I"Bassoons	*I"Bass Clarinet in Bb	*I"2nd Clarinet in Bb	*I"1st Clarinet in Bb	*I"Cor Anglais	*I"1st & 2nd Oboe	*I"3rd Fl. or Piccolo	*I"1st & 2nd Flute
*I'Cb.	*I'Vc.	*I'Vla.	*I'Vln. II	*I'Vln. I	*I'Bari. Sax.	*	*I'Ten. Sax.	*	*I'Alto Sax.	*	*I'Xyl.	*I'B. D.	*I'Cym.	*I'S. D.	*I'Timp.	*I'Tbn.	*I'Tbn.	*I'Tpt.	*	*I'Tpt.	*I'Hn.	*	*I'Hn.	*	*I'Bsn.	*I'B. Cl.	*I'Cl.	*I'Cl.	*I'C. A.	*I'Ob.	*I'Picc.	*I'Fl.
!!pagebreak:original
*	*	*	*	*	*	*	*	*	*	*	*	*stria1	*stria1	*stria1	*	*	*	*	*	*	*	*	*	*	*	*	*	*	*	*	*	*
*clefF4	*clefF4	*clefG2	*clefG2	*clefG2	*clefG2	*	*clefG2	*	*clefG2	*	*clefG2	*clefX	*clefX	*clefX	*clefF4	*clefF4	*clefF4	*clefG2	*	*clefG2	*clefG2	*	*clefG2	*	*clefF4	*clefG2	*clefG2	*clefG2	*clefG2	*clefG2	*clefG2	*clefG2
*ITrd0c0	*	*	*	*	*ITrd5c9	*	*ITrd1c2	*	*ITrd5c9	*	*ITrd0c0	*	*	*	*	*	*	*ITrd1c2	*	*ITrd1c2	*ITrd4c7	*	*ITrd4c7	*	*	*ITrd1c2	*ITrd1c2	*ITrd1c2	*ITrd4c7	*	*ITrd0c0	*
*k[b-]	*k[b-]	*k[b-]	*k[b-]	*k[b-]	*k[b-]	*	*k[b-]	*	*k[b-]	*	*k[b-]	*k[]	*k[]	*k[]	*k[]	*k[b-]	*k[b-]	*k[b-]	*	*k[b-]	*k[b-]	*	*k[b-]	*	*k[b-]	*k[b-]	*k[b-]	*k[b-]	*k[b-]	*k[b-]	*k[b-]	*k[b-]
*F:	*F:	*F:	*F:	*F:	*F:	*	*F:	*	*F:	*	*F:	*C:	*C:	*C:	*C:	*F:	*F:	*F:	*	*F:	*F:	*	*F:	*	*F:	*F:	*F:	*F:	*F:	*F:	*F:	*F:
*M2/4	*M2/4	*M2/4	*M2/4	*M2/4	*M2/4	*	*M2/4	*	*M2/4	*	*M2/4	*M2/4	*M2/4	*M2/4	*M2/4	*M2/4	*M2/4	*M2/4	*	*M2/4	*M2/4	*	*M2/4	*	*M2/4	*M2/4	*M2/4	*M2/4	*M2/4	*M2/4	*M2/4	*M2/4
*	*	*	*	*	*	*	*	*	*	*	*8va	*	*	*	*	*	*	*	*	*	*	*	*	*	*	*	*	*	*	*	*	*
=1	=1	=1	=1	=1	=1	=1	=1	=1	=1	=1	=1	=1	=1	=1	=1	=1	=1	=1	=1	=1	=1	=1	=1	=1	=1	=1	=1	=1	=1	=1	=1	=1
!	!LO:TX:b:t=[mf]	!	!	!	!	!	!	!	!	!	!	!	!	!	!LO:TX:t=[quarter]=140	!	!	!	!	!	!	!	!	!	!	!	!	!	!	!	!	!LO:TX:t=[quarter]=140
!LO:TX:b:t=[mf]	!LO:TX:a:t=[div.]	!LO:TX:b:t=[f]	!LO:TX:b:t=[f]	!LO:TX:b:t=[f]	!	!	!	!	!	!	!LO:TX:b:t=[f]	!	!	!	!LO:TX:b:t=[mf]	!LO:TX:b:t=[mf]	!	!	!	!	!LO:TX:b:t=[f]	!	!LO:TX:b:t=[f]	!	!LO:TX:b:t=[mf]	!LO:TX:b:t=[f]	!	!	!LO:TX:b:t=[f]	!	!LO:TX:b:t=[f]	!LO:TX:b:t=[f]
8F^L	8FF^L 8C	8g'^L	8cc'^L	8gg'^L	2r	.	2r	.	2r	.	8gg^L	8r	8r	8r	8FF^L	8FF'^L 8C	8r	2r	.	8r	[2B- [2c	.	[2B- [2c	.	8FF'^L 8C	[2b-	8r	8r	[2c	8r	8g'^L	8g'^L 8cc
*	*	*	*	*	*	*	*	*	*	*	*	*	*	*tremolo	*	*	*	*	*	*	*	*	*	*	*	*	*	*	*	*	*	*
!	!	!	!	!	!	!	!	!	!	!	!	!	!	!	!	!	!LO:TX:b:t=[f]	!	!	!LO:TX:b:t=[f]	!	!	!	!	!	!	!	!	!	!	!	!
!	!	!	!	!	!	!	!	!	!	!	!	!LO:TX:b:t=[mf]	!LO:TX:b:t=[mf]	!LO:TX:b:t=[mf]	!	!	!LO:TX:a:t=[a 2]	!	!	!LO:TX:a:t=[a 2]	!	!	!	!	!	!	!LO:TX:b:t=[f]	!LO:TX:b:t=[f]	!	!LO:TX:b:t=[f]	!	!
.	.	.	.	.	.	.	.	.	.	.	.	.	.	.	.	.	.	.	.	.	.	.	.	.	.	.	(8qa/	(8qdd/	.	(8qa/ 8qdd	.	.
8r^	8B-^J 8c	16ffL	16cccL	16fffL	.	.	.	.	.	.	16fffL	8Re/	8Re/	32Re/LLL	8C^J	8r	(8F^	.	.	(8f^	.	.	.	.	8r	.	8b-'^L)	8cc'^L)	.	8b-'^L 8cc)	16ffL	16ffL 16ccc
.	.	.	.	.	.	.	.	.	.	.	.	.	.	32Re/	.	.	.	.	.	.	.	.	.	.	.	.	.	.	.	.	.	.
.	.	16ffJJ	16cccJJ	16fffJJ	.	.	.	.	.	.	16fffJJ	.	.	32Re/	.	.	.	.	.	.	.	.	.	.	.	.	.	.	.	.	16ffJJ	16ffJJ 16ccc
.	.	.	.	.	.	.	.	.	.	.	.	.	.	32Re/	.	.	.	.	.	.	.	.	.	.	.	.	.	.	.	.	.	.
8F^J	8FF^L 8C	16ffLL	16cccLL	16fffLL	.	.	.	.	.	.	16fffLL	8r	8r	8r	8FF^L	8FF'^J 8C	8G'L)	.	.	8g'L)	.	.	.	.	8FF'^J 8C	.	8r	8r	.	8r	16ffLL	16ffLL 16ccc
.	.	16ffJ	16cccJ	16fffJ	.	.	.	.	.	.	16fffJ	.	.	.	.	.	.	.	.	.	.	.	.	.	.	.	.	.	.	.	16ffJ	16ffJ 16ccc
.	.	.	.	.	.	.	.	.	.	.	.	.	.	.	.	.	.	.	.	.	.	.	.	.	.	.	(8qa/	(8qdd/	.	(8qa/ 8qdd	.	.
8r^	8B-^J 8c	8gg'^J	8ccc'^J	8ggg'^J	.	.	.	.	.	.	8ggg^J	8Re/	8Re/	32Re/	8C^J	8r	8E^J	.	.	8e^J	.	.	.	.	8r	.	8b-'^J)	8cc'^J)	.	8b-'^J 8cc)	8gg'^J	8gg'^J 8ccc
.	.	.	.	.	.	.	.	.	.	.	.	.	.	32Re/	.	.	.	.	.	.	.	.	.	.	.	.	.	.	.	.	.	.
.	.	.	.	.	.	.	.	.	.	.	.	.	.	32Re/	.	.	.	.	.	.	.	.	.	.	.	.	.	.	.	.	.	.
.	.	.	.	.	.	.	.	.	.	.	.	.	.	32Re/JJJ	.	.	.	.	.	.	.	.	.	.	.	.	.	.	.	.	.	.
=2	=2	=2	=2	=2	=2	=2	=2	=2	=2	=2	=2	=2	=2	=2	=2	=2	=2	=2	=2	=2	=2	=2	=2	=2	=2	=2	=2	=2	=2	=2	=2	=2
8F^L	8FF^L 8C	16ccLL	16ggLL	16cccLL	2r	.	2r	.	2r	.	16cccLL	4r	4r	4r	8FF^L	8FF'^L 8C	8F^L	2r	.	8f^L	2B-_ 2c_	.	2B-_ 2c_	.	8FF'^L 8C	2b-_	4r	4r	2c_	4r	16ccLL	16ccLL 16gg
.	.	16cc	16gg	16ccc	.	.	.	.	.	.	16ccc	.	.	.	.	.	.	.	.	.	.	.	.	.	.	.	.	.	.	.	16cc	16cc 16gg
8F^J	8FF^J 8C	16cc	16gg	16ccc	.	.	.	.	.	.	16ccc	.	.	.	8FF^J	8FF'^J 8C	8E^J	.	.	8e^J	.	.	.	.	8FF'^J 8C	.	.	.	.	.	16cc	16cc 16gg
.	.	16ccJJ	16ggJJ	16cccJJ	.	.	.	.	.	.	16cccJJ	.	.	.	.	.	.	.	.	.	.	.	.	.	.	.	.	.	.	.	16ccJJ	16ccJJ 16gg
.	.	.	.	.	.	.	.	.	.	.	.	.	.	.	.	.	.	.	.	.	.	.	.	.	.	.	(8qa/	(8qdd/	.	(8qa/ 8qdd	.	.
8r'^	8B-^L 8c	8dd'^L	8gg'^L	8ddd'^L	.	.	.	.	.	.	8ddd^L	8Re/	8Re/	32Re/	8E^L	8r^	8D^L	.	.	8d^L	.	.	.	.	8r^	.	8b-'^)	8cc'^)	.	8b-'^ 8cc)	8dd'^L	8dd'^L 8gg
.	.	.	.	.	.	.	.	.	.	.	.	.	.	32Re/	.	.	.	.	.	.	.	.	.	.	.	.	.	.	.	.	.	.
.	.	.	.	.	.	.	.	.	.	.	.	.	.	32Re/	.	.	.	.	.	.	.	.	.	.	.	.	.	.	.	.	.	.
.	.	.	.	.	.	.	.	.	.	.	.	.	.	32Re/	.	.	.	.	.	.	.	.	.	.	.	.	.	.	.	.	.	.
8F^	8FF^J 8C	16fL	16ccL	16ffL	.	.	.	.	.	.	16ffL	8r	8r	8r	8FF^J	8FF'^ 8C	(8F^J	.	.	(8f^J	.	.	.	.	8FF'^ 8C	.	8r	8r	.	8r	16fL	16fL 16cc
.	.	16fJJ	16ccJJ	16ffJJ	.	.	.	.	.	.	16ffJJ	.	.	.	.	.	.	.	.	.	.	.	.	.	.	.	.	.	.	.	16fJJ	16fJJ 16cc
=3	=3	=3	=3	=3	=3	=3	=3	=3	=3	=3	=3	=3	=3	=3	=3	=3	=3	=3	=3	=3	=3	=3	=3	=3	=3	=3	=3	=3	=3	=3	=3	=3
8F^L	8FF^L 8C	16fLL	16ccLL	16ffLL	2r	.	2r	.	2r	.	16ffLL	8r	8r	8r	8FF^L	8FF'^L 8C	8G'L)	2r	.	8g'L)	2B-] 2c]	.	2B-] 2c]	.	8FF'^L 8C	2b-_	8r	8r	2c_	8r	16fLL	16fLL 16cc
.	.	16fJ	16ccJ	16ffJ	.	.	.	.	.	.	16ffJ	.	.	.	.	.	.	.	.	.	.	.	.	.	.	.	.	.	.	.	16fJ	16fJ 16cc
.	.	.	.	.	.	.	.	.	.	.	.	.	.	.	.	.	.	.	.	.	.	.	.	.	.	.	(8qa/	(8qdd/	.	(8qa/ 8qdd	.	.
8r^	8B-^J 8c	8g'^J	8cc'^J	8gg'^J	.	.	.	.	.	.	8gg^J	8Re/	8Re/	32Re/LLL	8C^J	8r^	8E^J	.	.	8e^J	.	.	.	.	8r^	.	8b-'^L)	8cc'^L)	.	8b-'^L 8cc)	8g'^J	8g'^J 8cc
.	.	.	.	.	.	.	.	.	.	.	.	.	.	32Re/	.	.	.	.	.	.	.	.	.	.	.	.	.	.	.	.	.	.
.	.	.	.	.	.	.	.	.	.	.	.	.	.	32Re/	.	.	.	.	.	.	.	.	.	.	.	.	.	.	.	.	.	.
.	.	.	.	.	.	.	.	.	.	.	.	.	.	32Re/	.	.	.	.	.	.	.	.	.	.	.	.	.	.	.	.	.	.
8F^J	8FF^L 8C	16ffLL	16cccLL	16fffLL	.	.	.	.	.	.	16fffLL	8r	8r	8r	8FF^L	8FF'^J 8C	8F^L	.	.	8f^L	.	.	.	.	8FF'^J 8C	.	8r	8r	.	8r	16ffLL	16ffLL 16ccc
.	.	16ff	16ccc	16fff	.	.	.	.	.	.	16fff	.	.	.	.	.	.	.	.	.	.	.	.	.	.	.	.	.	.	.	16ff	16ff 16ccc
.	.	.	.	.	.	.	.	.	.	.	.	.	.	.	.	.	.	.	.	.	.	.	.	.	.	.	(8qa/	(8qdd/	.	(8qa/ 8qdd	.	.
8r^	8B-^J 8c	16ff	16ccc	16fff	.	.	.	.	.	.	16fff	8Re/	8Re/	32Re/	8C^J	8r^	8E^J	.	.	8e^J	.	.	.	.	8r^	.	8b-'^J)	8cc'^J)	.	8b-'^J 8cc)	16ff	16ff 16ccc
.	.	.	.	.	.	.	.	.	.	.	.	.	.	32Re/	.	.	.	.	.	.	.	.	.	.	.	.	.	.	.	.	.	.
.	.	16ffJJ	16cccJJ	16fffJJ	.	.	.	.	.	.	16fffJJ	.	.	32Re/	.	.	.	.	.	.	.	.	.	.	.	.	.	.	.	.	16ffJJ	16ffJJ 16ccc
.	.	.	.	.	.	.	.	.	.	.	.	.	.	32Re/JJJ	.	.	.	.	.	.	.	.	.	.	.	.	.	.	.	.	.	.
=4	=4	=4	=4	=4	=4	=4	=4	=4	=4	=4	=4	=4	=4	=4	=4	=4	=4	=4	=4	=4	=4	=4	=4	=4	=4	=4	=4	=4	=4	=4	=4	=4
8F^L	8FF^L 8C	8gg'^L	8ccc'^L	8ggg'^L	4r	.	4r	.	4r	.	8ggg^L	4r	4r	4r	8FF^L	8FF'^L 8C	8D^L	2r	.	8d^L	4r	.	4r	.	8FF'^L 8C	2b-]	4r	4r	2c]	4r	8gg'^L	8gg'^L 8ccc
8F^J	8FF^J 8C	16ccL	16ggL	16cccL	.	.	.	.	.	.	16cccL	.	.	.	8FF^J	8FF'^J 8C	(8F^J	.	.	(8f^J	.	.	.	.	8FF'^J 8C	.	.	.	.	.	16ccL	16ccL 16gg
.	.	16ccJJ	16ggJJ	16cccJJ	.	.	.	.	.	.	16cccJJ	.	.	.	.	.	.	.	.	.	.	.	.	.	.	.	.	.	.	.	16ccJJ	16ccJJ 16gg
.	.	.	.	.	.	.	.	.	.	.	.	.	.	.	.	.	.	.	.	.	.	.	.	.	.	.	(8qa/	(8qdd/	.	(8qa/ 8qdd	.	.
8r'^	8B-^L 8c	16ccLL	16ggLL	16cccLL	12cc^L	f	12ee^L	f	12g^L	f	16cccLL	8Re/	8Re/	32Re/	8E^L	8r^	8G')	.	.	8g')	12c^L 12g	f	12e^L 12g	f	8r^	.	8b-'^)	8cc'^)	.	8b-'^ 8cc)	16ccLL	16ccLL 16gg
.	.	.	.	.	.	.	.	.	.	.	.	.	.	32Re/	.	.	.	.	.	.	.	.	.	.	.	.	.	.	.	.	.	.
.	.	16ccJ	16ggJ	16cccJ	.	.	.	.	.	.	16cccJ	.	.	32Re/	.	.	.	.	.	.	.	.	.	.	.	.	.	.	.	.	16ccJ	16ccJ 16gg
.	.	.	.	.	12a^	.	12cc^	.	12e^	.	.	.	.	.	.	.	.	.	.	.	12A^ 12e	.	12c^ 12e	.	.	.	.	.	.	.	.	.
.	.	.	.	.	.	.	.	.	.	.	.	.	.	32Re/	.	.	.	.	.	.	.	.	.	.	.	.	.	.	.	.	.	.
*	*	*	*	*	*	*	*	*	*	*	*X8va	*	*	*	*	*	*	*	*	*	*	*	*	*	*	*	*	*	*	*	*	*
8F^	8FF^J 8C	8dd'^J	8gg'^J	8ddd'^J	.	.	.	.	.	.	8ddd^J	8r	8r	8r	8FF^J	8FF'^ 8C	8r	.	.	8r	.	.	.	.	8FF'^ 8C	.	8r	8r	.	8r	8dd'^J	8dd'^J 8gg
.	.	.	.	.	12b-^J	.	12dd^J	.	12f^J	.	.	.	.	.	.	.	.	.	.	.	12B-^J 12f	.	12d^J 12f	.	.	.	.	.	.	.	.	.
=5	=5	=5	=5	=5	=5	=5	=5	=5	=5	=5	=5	=5	=5	=5	=5	=5	=5	=5	=5	=5	=5	=5	=5	=5	=5	=5	=5	=5	=5	=5	=5	=5
8F^L	8FF'^L 8C	16fLL	16ccLL	16ffLL	12a^L	.	12cc^L	.	12e^L	.	2r	8r	8r	8r	8FF^L	8FF'^L 8C	2r	2r	.	2r	12A^L 12e	.	12c^L 12e	.	8FF'^L 8C	12ee^L	12ee^L	12ee^L	2r	12a^L 12cc	16fLL	16fLL 16cc
.	.	16f	16cc	16ff	.	.	.	.	.	.	.	.	.	.	.	.	.	.	.	.	.	.	.	.	.	.	.	.	.	.	16f	16f 16cc
.	.	.	.	.	12g^	.	12b-^	.	12d^	.	.	.	.	.	.	.	.	.	.	.	12G^ 12d	.	12B-^ 12d	.	.	12dd^	12dd^	12dd^	.	12g^ 12b-	.	.
8r^	8r^	16f	16cc	16ff	.	.	.	.	.	.	.	8Re/	8Re/	32Re/LLL	8C^J	8r^	.	.	.	.	.	.	.	.	8r^	.	.	.	.	.	16f	16f 16cc
.	.	.	.	.	.	.	.	.	.	.	.	.	.	32Re/	.	.	.	.	.	.	.	.	.	.	.	.	.	.	.	.	.	.
.	.	.	.	.	12b-^J	.	12dd^J	.	12f^J	.	.	.	.	.	.	.	.	.	.	.	12B-^J 12f	.	12d^J 12f	.	.	12ff^J	12ff^J	12ff^J	.	12b-^J 12dd	.	.
.	.	16fJJ	16ccJJ	16ffJJ	.	.	.	.	.	.	.	.	.	32Re/	.	.	.	.	.	.	.	.	.	.	.	.	.	.	.	.	16fJJ	16fJJ 16cc
.	.	.	.	.	.	.	.	.	.	.	.	.	.	32Re/	.	.	.	.	.	.	.	.	.	.	.	.	.	.	.	.	.	.
8F^J	8FF'^J 8C	8g'^	8cc'^	8gg'^	12cc^L	.	12ee^L	.	12g^L	.	.	8r	8r	8r	8FF^L	8FF'^J 8C	.	.	.	.	12c^L 12g	.	12e^L 12g	.	8FF'^J 8C	12gg^L	12gg^L	12gg^L	.	12cc^L 12ee	8g'^	8g'^ 8cc
.	.	.	.	.	12a^	.	12cc^	.	12e^	.	.	.	.	.	.	.	.	.	.	.	12A^ 12e	.	12c^ 12e	.	.	12ee^	12ee^	12ee^	.	12a^ 12cc	.	.
8r^	8r^	8r	8r	8r	.	.	.	.	.	.	.	8Re/	8Re/	32Re/	8C^J	8r^	.	.	.	.	.	.	.	.	8r^	.	.	.	.	.	8r	8r
.	.	.	.	.	.	.	.	.	.	.	.	.	.	32Re/	.	.	.	.	.	.	.	.	.	.	.	.	.	.	.	.	.	.
.	.	.	.	.	12b-^J	.	12dd^J	.	12f^J	.	.	.	.	.	.	.	.	.	.	.	12B-^J 12f	.	12d^J 12f	.	.	12ff^J	12ff^J	12ff^J	.	12b-^J 12dd	.	.
.	.	.	.	.	.	.	.	.	.	.	.	.	.	32Re/	.	.	.	.	.	.	.	.	.	.	.	.	.	.	.	.	.	.
.	.	.	.	.	.	.	.	.	.	.	.	.	.	32Re/JJJ	.	.	.	.	.	.	.	.	.	.	.	.	.	.	.	.	.	.
*	*	*	*	*	*	*	*	*	*	*	*	*	*	*Xtremolo	*	*	*	*	*	*	*	*	*	*	*	*	*	*	*	*	*	*
=6	=6	=6	=6	=6	=6	=6	=6	=6	=6	=6	=6	=6	=6	=6	=6	=6	=6	=6	=6	=6	=6	=6	=6	=6	=6	=6	=6	=6	=6	=6	=6	=6
*	*	*	*	*	*	*	*	*	*	*	*	*	*	*	*	*^	*	*	*	*	*	*	*	*	*	*	*	*	*	*	*	*^
8F^L	8FF'^L 8C	24cLL	24ccLL	24ccLL	16a^LL	.	16cc^LL	.	16e^LL	.	2r	2r	2r	16Re^/LL	16FF^LL	8c^L	2r	8c^L	16a^LL	f	16cc^LL 16ee	16A^LL 16e	.	16c^LL 16e	.	8FF'^L 8C	16ee^LL	16ee^LL	16ee^LL	2r	16a^LL 16cc	8cc^L	40cc^LLL	8ccL
.	.	.	.	.	.	.	.	.	.	.	.	.	.	.	.	.	.	.	.	.	.	.	.	.	.	.	.	.	.	.	.	.	40dd	.
.	.	24cc	24ccc	24ccc	.	.	.	.	.	.	.	.	.	.	.	.	.	.	.	.	.	.	.	.	.	.	.	.	.	.	.	.	.	.
.	.	.	.	.	.	.	.	.	.	.	.	.	.	.	.	.	.	.	.	.	.	.	.	.	.	.	.	.	.	.	.	.	40cc	.
.	.	.	.	.	16g^	.	16b-^	.	16d^	.	.	.	.	16Re^/	16FF^	.	.	.	16g^	.	16b-^ 16dd	16G^ 16d	.	16B-^ 16d	.	.	16dd^	16dd^	16dd^	.	16g^ 16b-	.	.	.
.	.	.	.	.	.	.	.	.	.	.	.	.	.	.	.	.	.	.	.	.	.	.	.	.	.	.	.	.	.	.	.	.	40dd	.
.	.	24cJ	24ccJ	24ccJ	.	.	.	.	.	.	.	.	.	.	.	.	.	.	.	.	.	.	.	.	.	.	.	.	.	.	.	.	.	.
.	.	.	.	.	.	.	.	.	.	.	.	.	.	.	.	.	.	.	.	.	.	.	.	.	.	.	.	.	.	.	.	.	40ccJJJ	.
8F^J	8FF'^J 8C	24dL	24ddL	24ddL	(16b-^	.	(16dd^	.	(16f^	.	.	.	.	16Re^/	16FF^	8B-^J	.	8B-^J	(16b-^	.	(16dd^ 16ff	(16B-^ 16f	.	(16d^ 16f	.	8FF'^J 8C	(16ff^	(16ff^	(16ff^	.	(16b-^ 16dd	8dd^J	40dd^LLL	8ddJ
.	.	.	.	.	.	.	.	.	.	.	.	.	.	.	.	.	.	.	.	.	.	.	.	.	.	.	.	.	.	.	.	.	40ee	.
.	.	24dd	24ddd	24ddd	.	.	.	.	.	.	.	.	.	.	.	.	.	.	.	.	.	.	.	.	.	.	.	.	.	.	.	.	.	.
.	.	.	.	.	.	.	.	.	.	.	.	.	.	.	.	.	.	.	.	.	.	.	.	.	.	.	.	.	.	.	.	.	40dd	.
.	.	.	.	.	16cc'JJ)	.	16ee'JJ)	.	16g'JJ)	.	.	.	.	16Re^/JJ	16FF^JJ	.	.	.	16cc'JJ)	.	16ee'JJ 16gg)	16c'JJ 16g)	.	16e'JJ 16g)	.	.	16gg'JJ)	16gg'JJ)	16gg'JJ)	.	16cc'JJ 16ee)	.	.	.
.	.	.	.	.	.	.	.	.	.	.	.	.	.	.	.	.	.	.	.	.	.	.	.	.	.	.	.	.	.	.	.	.	40ee	.
.	.	24dJJ	24ddJJ	24ddJJ	.	.	.	.	.	.	.	.	.	.	.	.	.	.	.	.	.	.	.	.	.	.	.	.	.	.	.	.	.	.
.	.	.	.	.	.	.	.	.	.	.	.	.	.	.	.	.	.	.	.	.	.	.	.	.	.	.	.	.	.	.	.	.	40ddJJJ	.
8r'^	8r'^	24eLL	24eeLL	24eeLL	16a^LL	.	16cc^LL	.	16e^LL	.	.	.	.	16Re^/LL	16C^LL	8A^L	.	8A^L	16a^LL	.	16cc^LL 16ee	16A^LL 16e	.	16c^LL 16e	.	8r^	16ee^LL	16ee^LL	16ee^LL	.	16a^LL 16cc	8ee^L	24ryy@	8ee^L
.	.	24ee	24eee	24eee	.	.	.	.	.	.	.	.	.	.	.	.	.	.	.	.	.	.	.	.	.	.	.	.	.	.	.	.	48ryy@	.
.	.	.	.	.	16b-^	.	16dd^	.	16f^	.	.	.	.	16Re^/	16C^	.	.	.	16b-^	.	16dd^ 16ff	16B-^ 16f	.	16d^ 16f	.	.	16ff^	16ff^	16ff^	.	16b-^ 16dd	.	48ryy@	.
.	.	24eJ	24eeJ	24eeJ	.	.	.	.	.	.	.	.	.	.	.	.	.	.	.	.	.	.	.	.	.	.	.	.	.	.	.	.	24ryy@	.
8F^	8FF'^ 8C	24fL	24ffL	24ffL	16a^	.	16cc^	.	16e^	.	.	.	.	16Re^/	16FF^	8G^J	.	8G^J	16a^	.	16cc^ 16ee	16A^ 16e	.	16c^ 16e	.	8FF'^ 8C	16ee^	16ee^	16ee^	.	16a^ 16cc	8ff^J	24ryy@	8ff^J
.	.	24ff	24fff	24fff	.	.	.	.	.	.	.	.	.	.	.	.	.	.	.	.	.	.	.	.	.	.	.	.	.	.	.	.	48ryy@	.
.	.	.	.	.	16g^JJ	.	16b-^JJ	.	16d^JJ	.	.	.	.	16Re^/JJ	16FF^JJ	.	.	.	16g^JJ	.	16b-^JJ 16dd	16G^JJ 16d	.	16B-^JJ 16d	.	.	16dd^JJ	16dd^JJ	16dd^JJ	.	16g^JJ 16b-	.	48ryy@	.
.	.	24fJJ	24ffJJ	24ffJJ	.	.	.	.	.	.	.	.	.	.	.	.	.	.	.	.	.	.	.	.	.	.	.	.	.	.	.	.	24ryy@	.
*	*	*	*	*	*	*	*	*	*	*	*	*	*	*	*	*	*	*	*	*	*	*	*	*	*	*	*	*	*	*	*	*	*v	*v
=7	=7	=7	=7	=7	=7	=7	=7	=7	=7	=7	=7	=7	=7	=7	=7	=7	=7	=7	=7	=7	=7	=7	=7	=7	=7	=7	=7	=7	=7	=7	=7	=7	=7
8F^L	8FF'^L 8C	24gLL	24ggLL	24ggLL	(16b-^LL	.	(16dd^LL	.	(16f^LL	.	2r	2r	2r	16Re^/LL	16FF^LL	8F^L	2r	8F^L	(16b-^LL	.	(16dd^LL 16ff	(16B-^LL 16f	.	(16d^LL 16f	.	8FF'^ 8C	(16ff^LL	(16ff^LL	(16ff^LL	2r	(16b-^LL 16dd	8gg^L	8gg^L
.	.	24gg	24ggg	24ggg	.	.	.	.	.	.	.	.	.	.	.	.	.	.	.	.	.	.	.	.	.	.	.	.	.	.	.	.	.
.	.	.	.	.	16cc')	.	16ee')	.	16g')	.	.	.	.	16Re^/	16FF^	.	.	.	16cc')	.	16ee' 16gg)	16c' 16g)	.	16e' 16g)	.	.	16gg')	16gg')	16gg')	.	16cc' 16ee)	.	.
.	.	24gJ	24ggJ	24ggJ	.	.	.	.	.	.	.	.	.	.	.	.	.	.	.	.	.	.	.	.	.	.	.	.	.	.	.	.	.
8r^	8r^	24aL	24aaL	24aaL	16a^	.	16cc^	.	16e^	.	.	.	.	16Re^/	16C^	8E^J	.	8E^J	16a^	.	16cc^ 16ee	16A^ 16e	.	16c^ 16e	.	8r^	16ee^	16ee^	16ee^	.	16a^ 16cc	8aa^J	8aa^J
.	.	24aa	24aaa	24aaa	.	.	.	.	.	.	.	.	.	.	.	.	.	.	.	.	.	.	.	.	.	.	.	.	.	.	.	.	.
.	.	.	.	.	16b-^JJ	.	16dd^JJ	.	16f^JJ	.	.	.	.	16Re^/JJ	16C^JJ	.	.	.	16b-^JJ	.	16dd^JJ 16ff	16B-^JJ 16f	.	16d^JJ 16f	.	.	16ff^JJ	16ff^JJ	16ff^JJ	.	16b-^JJ 16dd	.	.
.	.	24aJJ	24aaJJ	24aaJJ	.	.	.	.	.	.	.	.	.	.	.	.	.	.	.	.	.	.	.	.	.	.	.	.	.	.	.	.	.
8F^J	8FF'^J 8C	24b-LL	24bb-LL	24bb-LL	16a^LL	.	16cc^LL	.	16e^LL	.	.	.	.	16Re^/LL	16FF^LL	8D^L	.	8D^L	16a^LL	.	16cc^LL 16ee	16A^LL 16e	.	16c^LL 16e	.	8FF'^ 8C	16ee^LL	16ee^LL	16ee^LL	.	16a^LL 16cc	8bb-^L	8bb-^L
.	.	24bb-	24bbb-	24bbb-	.	.	.	.	.	.	.	.	.	.	.	.	.	.	.	.	.	.	.	.	.	.	.	.	.	.	.	.	.
.	.	.	.	.	16g^	.	16b-^	.	16d^	.	.	.	.	16Re^/	16FF^	.	.	.	16g^	.	16b-^ 16dd	16G^ 16d	.	16B-^ 16d	.	.	16dd^	16dd^	16dd^	.	16g^ 16b-	.	.
.	.	24b-J	24bb-J	24bb-J	.	.	.	.	.	.	.	.	.	.	.	.	.	.	.	.	.	.	.	.	.	.	.	.	.	.	.	.	.
8r^	8r^	24ccL	24cccL	24cccL	16b-^	.	16dd^	.	16f^	.	.	.	.	16Re^/	16C^	8C^J	.	8C^J	16b-^	.	16dd^ 16ff	16B-^ 16f	.	16d^ 16f	.	8r	16ff^	16ff^	16ff^	.	16b-^ 16dd	8ccc^J	8ccc^J
.	.	24ccc	24cccc	24cccc	.	.	.	.	.	.	.	.	.	.	.	.	.	.	.	.	.	.	.	.	.	.	.	.	.	.	.	.	.
.	.	.	.	.	16cc^JJ	.	16ee^JJ	.	16g^JJ	.	.	.	.	16Re^/JJ	16C^JJ	.	.	.	16cc^JJ	.	16ee^JJ 16gg	16c^JJ 16g	.	16e^JJ 16g	.	.	16gg^JJ	16gg^JJ	16gg^JJ	.	16cc^JJ 16ee	.	.
.	.	24ccJJ	24cccJJ	24cccJJ	.	.	.	.	.	.	.	.	.	.	.	.	.	.	.	.	.	.	.	.	.	.	.	.	.	.	.	.	.
*	*	*	*	*	*	*	*	*	*	*	*	*	*	*	*	*v	*v	*	*	*	*	*	*	*	*	*	*	*	*	*	*	*	*
=||	=||	=||	=||	=||	=||	=||	=||	=||	=||	=||	=||	=||	=||	=||	=||	=||	=||	=||	=||	=||	=||	=||	=||	=||	=||	=||	=||	=||	=||	=||	=||	=||
*-	*-	*-	*-	*-	*-	*-	*-	*-	*-	*-	*-	*-	*-	*-	*-	*-	*-	*-	*-	*-	*-	*-	*-	*-	*-	*-	*-	*-	*-	*-	*-	*-
!!!system-decoration: [(s1,s2,s3,s4[(s5,s6,s7)]s8)][([(s9,s10)][(s11,s12)][(s13,s14)])][(s15,s16,s17,s18,s19)][([(s20,s21,s22)])][(s23,s24,s25,s26,s27)]
